X: 475
T: Ba cong
%%abc-version 2.0
%%abcx-abcm2ps-target-version 5.9.1 (29 Sep 2008)
%%abc-creator hum2abc beta
%%abcx-conversion-date 2013/10/02 07:52:30
%%abc-edited-by Helmut Schaffrath
%%humdrum-veritas 465438300
%%humdrum-veritas-data 20416589
%%continueall 1
%%barnumbers 0
L: 1/8
M: 2/4
K: Bb
g' f' e' f' [I:setbarnb 1]| 
c'4 | 
g' f' e' f' | 
c'4 | 
a bc'2 | 
g'f'2f' | 
c'2f'2 | 
c' e' c' b | 
bf2g | 
b2d' c' | 
b g f d | 
f4 |]  



